images/runner-icon.svg

<svg width="64" height="64" viewBox="0 0 64 64" fill="none" xmlns="http://www.w3.org/2000/svg">
<path d="M56.6402 49.1842C58.7714 47.6098 60.1602 45.0882 60.1602 42.2402C60.1602 38.4194 57.7026 35.1042 54.0482 33.9842L49.3954 32.557L51.501 22.5346C55.9938 20.4546 59.3602 16.365 60.4354 11.4114C60.685 10.253 60.4098 9.06901 59.6674 8.15381C58.9378 7.24501 57.837 6.72021 56.6594 6.72021H56.493C54.765 6.72021 53.3058 7.93621 52.9538 9.67701C52.2882 12.9346 49.7538 15.469 46.5026 16.1474C45.069 16.4418 43.9746 17.581 43.6418 18.989C43.597 19.0722 43.565 19.1618 43.5458 19.2578L41.2674 30.0738L21.6322 24.0642L19.8082 19.5202H20.8514C23.117 19.5202 24.9602 17.677 24.9602 15.4114C24.9602 13.485 23.5906 11.7954 21.709 11.3858L10.8738 9.06901C9.3058 8.72981 7.693 9.11381 6.44499 10.125C5.197 11.1298 4.4802 12.6338 4.4802 14.2338C4.4802 17.1522 6.8482 19.5202 9.7666 19.5202H10.6562L12.461 24.0386C11.1682 24.493 9.93299 25.1458 8.7938 25.9906C5.2354 28.6146 3.2002 32.6594 3.2002 37.0818C3.2002 41.8242 5.6066 46.0098 9.2546 48.4994C5.7986 49.2418 3.2002 52.3202 3.2002 56.0002C3.2002 56.7042 3.7762 57.2802 4.4802 57.2802H59.5202C60.2242 57.2802 60.8002 56.7042 60.8002 56.0002C60.8002 53.037 59.1106 50.4642 56.6402 49.1842ZM47.0274 18.6498C51.277 17.7666 54.5858 14.445 55.4626 10.189C55.5714 9.65781 55.9938 9.28021 56.493 9.28021H56.6594C57.2098 9.28021 57.5362 9.58101 57.677 9.76021C57.9266 10.0674 58.0226 10.4706 57.933 10.8674C56.8194 15.9938 52.7938 20.0194 47.6674 21.133C47.2706 21.2226 46.861 21.1266 46.5538 20.877C46.3746 20.7362 46.0802 20.4162 46.0802 19.885C46.0802 19.2834 46.477 18.765 47.0274 18.6498ZM45.3442 23.1362C45.9586 23.5202 46.6562 23.725 47.373 23.725C47.6482 23.725 47.9298 23.6994 48.2114 23.6354C48.365 23.6034 48.525 23.5522 48.6786 23.5138L46.9378 31.8082L43.725 30.829L45.3442 23.1362ZM9.7666 16.9602C8.2626 16.9602 7.0402 15.7378 7.0402 14.2338C7.0402 13.4082 7.4114 12.6338 8.05139 12.1154C8.5442 11.7186 9.1458 11.5074 9.7602 11.5074C9.9522 11.5074 10.1442 11.5266 10.3362 11.5714L21.1714 13.8946C21.8818 14.0418 22.4002 14.6818 22.4002 15.4114C22.4002 16.2626 21.7026 16.9602 20.8514 16.9602H9.7666ZM18.5922 23.373C17.3762 23.2258 16.1602 23.245 14.9698 23.4242L13.4082 19.5202H17.0562L18.5922 23.373ZM5.7602 37.0818C5.7602 33.4786 7.4178 30.189 10.317 28.045C12.2882 26.5858 14.5986 25.8306 16.9666 25.8306C18.0738 25.8306 19.1874 25.997 20.2882 26.3362L53.2994 36.429C55.8722 37.2162 57.6002 39.5522 57.6002 42.2402C57.6002 45.5938 54.8738 48.3202 51.5202 48.3202H16.9986C10.8034 48.3202 5.7602 43.277 5.7602 37.0818ZM5.9202 54.7202C6.4898 52.5122 8.4994 50.8802 10.8802 50.8802H53.1202C55.501 50.8802 57.5106 52.5122 58.0802 54.7202H5.9202ZM22.2722 43.2642L24.141 44.8258C24.1602 44.8386 24.1794 44.8514 24.1986 44.8642C24.2242 44.8834 24.2562 44.9026 24.2882 44.9218C24.3266 44.9474 24.365 44.9666 24.4034 44.9858C24.4354 45.005 24.4674 45.0178 24.493 45.0306C24.5442 45.0498 24.589 45.0626 24.6402 45.0754C24.6658 45.0818 24.6914 45.0882 24.7234 45.0946C24.8002 45.1138 24.877 45.1202 24.9602 45.1202H28.1602C28.8642 45.1202 29.4402 44.5442 29.4402 43.8402C29.4402 43.1362 28.8642 42.5602 28.1602 42.5602H25.421L23.9106 41.2994C24.5762 40.1666 24.9602 38.8482 24.9602 37.4402C24.9602 33.2034 21.517 29.7602 17.2802 29.7602C13.0434 29.7602 9.60019 33.2034 9.60019 37.4402C9.60019 41.677 13.0434 45.1202 17.2802 45.1202C19.1874 45.1202 20.9282 44.4162 22.2722 43.2642ZM12.1602 37.4402C12.1602 34.6178 14.4578 32.3202 17.2802 32.3202C20.1026 32.3202 22.4002 34.6178 22.4002 37.4402C22.4002 38.221 22.221 38.9634 21.901 39.629L18.0994 36.4546C17.5554 36.0066 16.749 36.077 16.2946 36.621C15.8466 37.165 15.917 37.9714 16.461 38.4258L20.2626 41.5938C19.4242 42.2018 18.3938 42.5602 17.2802 42.5602C14.4578 42.5602 12.1602 40.2626 12.1602 37.4402ZM33.2802 43.8402C33.2802 43.1362 33.8562 42.5602 34.5602 42.5602H35.8402C36.5442 42.5602 37.1202 43.1362 37.1202 43.8402C37.1202 44.5442 36.5442 45.1202 35.8402 45.1202H34.5602C33.8562 45.1202 33.2802 44.5442 33.2802 43.8402ZM40.9602 43.8402C40.9602 43.1362 41.5362 42.5602 42.2402 42.5602H43.5202C44.2242 42.5602 44.8002 43.1362 44.8002 43.8402C44.8002 44.5442 44.2242 45.1202 43.5202 45.1202H42.2402C41.5362 45.1202 40.9602 44.5442 40.9602 43.8402ZM48.6402 43.8402C48.6402 43.1362 49.2162 42.5602 49.9202 42.5602H51.2002C51.9042 42.5602 52.4802 43.1362 52.4802 43.8402C52.4802 44.5442 51.9042 45.1202 51.2002 45.1202H49.9202C49.2162 45.1202 48.6402 44.5442 48.6402 43.8402Z" fill="#F7931E"/>
</svg>

<svg width="64" height="64" fill="none" xmlns="http://www.w3.org/2000/svg"><path d="M56.64 49.184c2.131-1.574 3.52-4.096 3.52-6.944a8.592 8.592 0 0 0-6.112-8.256l-4.653-1.427 2.106-10.022c4.493-2.08 7.86-6.17 8.934-11.124a3.847 3.847 0 0 0-.768-3.257A3.843 3.843 0 0 0 56.66 6.72h-.166c-1.728 0-3.187 1.216-3.54 2.957a8.305 8.305 0 0 1-6.45 6.47c-1.434.295-2.528 1.434-2.861 2.842a.961.961 0 0 0-.096.269l-2.279 10.816-19.635-6.01-1.824-4.544h1.043a4.113 4.113 0 0 0 4.11-4.109 4.146 4.146 0 0 0-3.252-4.025L10.874 9.069a5.24 5.24 0 0 0-4.429 1.056 5.26 5.26 0 0 0-1.965 4.109 5.288 5.288 0 0 0 5.287 5.286h.89l1.804 4.519a13.88 13.88 0 0 0-3.667 1.952C5.235 28.615 3.2 32.659 3.2 37.08c0 4.743 2.407 8.929 6.055 11.418C5.799 49.242 3.2 52.32 3.2 56c0 .704.576 1.28 1.28 1.28h55.04c.704 0 1.28-.576 1.28-1.28 0-2.963-1.69-5.536-4.16-6.816ZM47.027 18.65a10.87 10.87 0 0 0 8.436-8.461c.108-.531.53-.909 1.03-.909h.166c.55 0 .877.301 1.018.48.25.307.346.71.256 1.107a13.444 13.444 0 0 1-10.266 10.266 1.307 1.307 0 0 1-1.113-.256c-.18-.14-.474-.46-.474-.992 0-.602.397-1.12.947-1.235Zm-1.683 4.486a3.818 3.818 0 0 0 2.867.5c.154-.033.314-.084.468-.122l-1.741 8.294-3.213-.979 1.62-7.693ZM9.767 16.96a2.729 2.729 0 0 1-2.727-2.726c0-.826.371-1.6 1.011-2.119a2.722 2.722 0 0 1 1.71-.608c.191 0 .383.02.575.064l10.835 2.324c.71.147 1.23.787 1.23 1.516 0 .852-.698 1.55-1.55 1.55H9.767Zm8.825 6.413a13.45 13.45 0 0 0-3.622.051l-1.562-3.904h3.648l1.536 3.853ZM5.76 37.082c0-3.603 1.658-6.893 4.557-9.037 1.971-1.46 4.282-2.214 6.65-2.214 1.107 0 2.22.166 3.321.505L53.3 36.43A6.046 6.046 0 0 1 57.6 42.24a6.086 6.086 0 0 1-6.08 6.08H17c-6.196 0-11.239-5.043-11.239-11.238Zm.16 17.638a5.13 5.13 0 0 1 4.96-3.84h42.24a5.13 5.13 0 0 1 4.96 3.84H5.92Zm16.352-11.456 1.869 1.562.058.038c.025.02.057.039.09.058.038.025.076.045.114.064.032.019.064.032.09.045.051.019.096.032.147.044l.083.02a.96.96 0 0 0 .237.025h3.2c.704 0 1.28-.576 1.28-1.28 0-.704-.576-1.28-1.28-1.28h-2.739l-1.51-1.26a7.594 7.594 0 0 0 1.05-3.86 7.686 7.686 0 0 0-7.68-7.68 7.686 7.686 0 0 0-7.68 7.68 7.686 7.686 0 0 0 7.68 7.68 7.647 7.647 0 0 0 4.991-1.856ZM12.16 37.44a5.127 5.127 0 0 1 5.12-5.12 5.127 5.127 0 0 1 5.12 5.12c0 .781-.179 1.523-.499 2.189l-3.802-3.174a1.286 1.286 0 0 0-1.804.166 1.286 1.286 0 0 0 .166 1.805l3.802 3.168a5.063 5.063 0 0 1-2.983.966 5.127 5.127 0 0 1-5.12-5.12Zm21.12 6.4c0-.704.576-1.28 1.28-1.28h1.28c.704 0 1.28.576 1.28 1.28 0 .704-.576 1.28-1.28 1.28h-1.28c-.704 0-1.28-.576-1.28-1.28Zm7.68 0c0-.704.576-1.28 1.28-1.28h1.28c.704 0 1.28.576 1.28 1.28 0 .704-.576 1.28-1.28 1.28h-1.28c-.704 0-1.28-.576-1.28-1.28Zm7.68 0c0-.704.576-1.28 1.28-1.28h1.28c.704 0 1.28.576 1.28 1.28 0 .704-.576 1.28-1.28 1.28h-1.28c-.704 0-1.28-.576-1.28-1.28Z" fill="#F7931E"/></svg>
